themes/default/assets/images/icons/mid/scalable.svg

<?xml version="1.0" encoding="UTF-8"?>
<svg width="99px" height="75px" viewBox="0 0 99 75" version="1.1" xmlns="http://www.w3.org/2000/svg" xmlns:xlink="http://www.w3.org/1999/xlink">
    <!-- Generator: sketchtool 59 (101010) - https://sketch.com -->
    <title>63787D1F-A053-4710-9318-E90DB01D19F6</title>
    <desc>Created with sketchtool.</desc>
    <g id="Page-1" stroke="none" stroke-width="1" fill="none" fill-rule="evenodd">
        <g id="Icons" transform="translate(-853.000000, -2501.000000)" fill-rule="nonzero">
            <g id="mid-icon-scalable" transform="translate(853.000000, 2501.000000)">
                <path d="M87.3861386,67.82 C87.2058677,67.8226551 87.032065,67.7522191 86.9036533,67.624403 C86.7752416,67.4965868 86.7029508,67.3220933 86.7029703,67.14 L86.7029703,12.07 L7.61386139,12.07 C7.23655794,12.07 6.93069307,11.7610765 6.93069307,11.38 C6.93069307,10.9989235 7.23655794,10.69 7.61386139,10.69 L88.118817,10.69 L88.118817,67.14 C88.118817,67.3312409 88.0405222,67.513956 87.9010994,67.6433554 C87.7616766,67.7727548 87.5747489,67.8368758 87.3861386,67.82 L87.3861386,67.82 Z" id="Path" fill="#2969F6"></path>
                <path d="M83.4455446,20.92 L77.8910891,20.92 L77.8910891,15.34 L83.4455446,15.34 L83.4455446,20.92 Z M79.2574257,19.54 L82.0792079,19.54 L82.0792079,16.72 L79.2574257,16.72 L79.2574257,19.54 Z" id="Shape" fill="#2969F6"></path>
                <path d="M56.8613861,39.52 L51.2970297,39.52 L51.2970297,33.93 L56.8613861,33.93 L56.8613861,39.52 Z M52.6831683,38.13 L55.4455446,38.13 L55.4455446,35.32 L52.6831683,35.32 L52.6831683,38.13 Z" id="Shape" fill="#A8C5DD"></path>
                <path d="M24.6237624,52.52 L24.6237624,58.11 L30.1881188,58.11 L30.1881188,52.52 L24.6237624,52.52 Z M28.8019802,56.72 L26.009901,56.72 L26.009901,53.91 L28.8019802,53.91 L28.8019802,56.72 Z" id="Shape" fill="#A8C5DD"></path>
                <path d="M99.009901,67.37 C99.0159294,67.3134724 99.0159294,67.2565276 99.009901,67.2 C99.009901,67.2 99.009901,67.2 99.009901,67.2 L99.009901,67.2 C99.0146422,67.156799 99.0146422,67.113201 99.009901,67.07 C99.0179388,67.0270469 99.0179388,66.9829531 99.009901,66.94 C98.9905243,66.8979204 98.9673225,66.8577482 98.9405941,66.82 C98.9263497,66.7919744 98.9097893,66.7652128 98.8910891,66.74 L95.2277228,62.74 C94.9543145,62.4638576 94.5110321,62.4638576 94.2376238,62.74 C93.9642155,63.0161424 93.9642155,63.4638576 94.2376238,63.74 L96.8514851,66.6 L61.4851485,66.6 L61.4851485,29.28 L8.16831683,29.28 L8.16831683,2.28 L11.019802,4.85 C11.1513136,4.95621435 11.3170308,5.00963169 11.4851485,5 C11.6809947,4.99911685 11.8675976,4.91575559 12,4.77 C12.125551,4.6304279 12.1900364,4.44559719 12.1788541,4.25736144 C12.1676718,4.06912569 12.0817677,3.89340859 11.9405941,3.77 L7.92079208,0.17 L7.82178218,0.12 L7.7029703,0.05 L7.58415842,0 L7.44554455,0 L7.31683168,0 L7.18811881,0 L7.06930693,0.13 L6.98019802,0.13 L2.97029703,3.86 C2.76029108,4.05915365 2.69415089,4.36874644 2.80416463,4.63764203 C2.91417838,4.90653762 3.17740637,5.07866684 3.46534653,5.07 C3.64951658,5.08006681 3.82932223,5.0110574 3.96039604,4.88 L6.78217822,2.25 L6.78217822,29.84 C6.77754615,29.8865494 6.77754615,29.9334506 6.78217822,29.98 C6.77864212,30.0232597 6.77864212,30.0667403 6.78217822,30.11 L6.78217822,48.44 C6.77657689,48.4831487 6.77657689,48.5268513 6.78217822,48.57 C6.7775934,48.6132096 6.7775934,48.6567904 6.78217822,48.7 L6.78217822,60.39 C6.78217823,60.7765993 7.09247593,61.09 7.47524752,61.09 C7.85801912,61.09 8.16831682,60.7765993 8.16831683,60.39 L8.16831683,49.27 L33.5148515,49.27 L33.5148515,66.47 L14.5346535,66.47 C14.2691036,66.4377704 14.0088912,66.562743 13.866036,66.7911178 C13.7231808,67.0194926 13.7231808,67.3105074 13.866036,67.5388822 C14.0088912,67.767257 14.2691036,67.8922296 14.5346535,67.86 L96.7128713,67.86 L94.1485149,70.73 C94.0154681,70.8616623 93.940493,71.0418719 93.940493,71.23 C93.940493,71.4181281 94.0154681,71.5983377 94.1485149,71.73 C94.2788735,71.8643772 94.4572989,71.9401021 94.6435644,71.9401021 C94.8298298,71.9401021 95.0082552,71.8643772 95.1386139,71.73 L98.6732673,67.73 C98.8257145,67.6562007 98.9456558,67.5279341 99.009901,67.37 L99.009901,67.37 Z M8.16831683,47.87 L8.16831683,30.67 L60.0990099,30.67 L60.0990099,66.47 L34.8910891,66.47 L34.8910891,47.87 L8.16831683,47.87 Z" id="Shape" fill="#A8C5DD"></path>
                <path d="M7.61386139,75.0000067 C3.42786437,74.9834381 0.0467046383,71.5446105 0.0594115674,67.3167407 C0.0721902977,63.0888709 3.47401647,59.6708982 7.66003574,59.6800584 C11.846055,59.6892555 15.2331554,63.1221141 15.2277293,67.35 C15.211352,71.5837316 11.8057032,75.005545 7.61386139,75.0000067 L7.61386139,75.0000067 Z M7.61386139,61.0899281 C4.19736687,61.1175621 1.4472775,63.9323465 1.46534467,67.3830673 C1.48359062,70.8337881 4.26314476,73.6188925 7.67973634,73.6098008 C11.0963279,73.6006644 13.8613861,70.8007695 13.8613861,67.35 C13.8561477,65.6826982 13.1946635,64.0859367 12.0227362,62.9116693 C10.850809,61.7374018 9.26464466,61.0820267 7.61386139,61.0899281 L7.61386139,61.0899281 Z" id="Shape" fill="#032663"></path>
                <path d="M64.7029703,26.75 L59.3069307,26.75 C58.9241591,26.75 58.6138614,26.4365993 58.6138614,26.05 C58.6138614,25.6634007 58.9241591,25.35 59.3069307,25.35 L64.7029703,25.35 C65.0857419,25.35 65.3960395,25.6634007 65.3960395,26.05 C65.3960395,26.4365993 65.0857419,26.75 64.7029703,26.75 L64.7029703,26.75 Z" id="Path" fill="#032663"></path>
                <path d="M64.7029703,32.2 C64.3201987,32.2 64.009901,31.8865993 64.009901,31.5 L64.009901,26.05 C63.9779905,25.7817947 64.1017257,25.5189801 64.3278394,25.3746963 C64.553953,25.2304126 64.8420866,25.2304126 65.0682002,25.3746963 C65.2943139,25.5189801 65.4180491,25.7817947 65.3861386,26.05 L65.3861386,31.5 C65.3887896,31.6847258 65.3179851,31.86281 65.1895778,31.994381 C65.0611704,32.1259521 64.8858864,32.2 64.7029703,32.2 Z" id="Path" fill="#032663"></path>
                <path d="M38.029703,45.34 L32.6732673,45.34 C32.3809005,45.2506498 32.1809221,44.9785125 32.1809221,44.67 C32.1809221,44.3614875 32.3809005,44.0893502 32.6732673,44 L38.0693069,44 C38.4175901,44.0422709 38.6796867,44.3407033 38.6796867,44.695 C38.6796867,45.0492967 38.4175901,45.3477291 38.0693069,45.39 L38.029703,45.34 Z" id="Path" fill="#032663"></path>
                <path d="M38.029703,50.79 C37.8468061,50.7926775 37.6704851,50.721165 37.5402168,50.5914735 C37.4099484,50.4617821 37.3366145,50.2847452 37.3366337,50.1 L37.3366337,44.64 C37.378486,44.288234 37.6739637,44.0235165 38.0247525,44.0235165 C38.3755412,44.0235165 38.6710189,44.288234 38.7128713,44.64 L38.7128713,50.1 C38.7128713,50.4810765 38.4070064,50.79 38.029703,50.79 L38.029703,50.79 Z" id="Path" fill="#032663"></path>
            </g>
        </g>
    </g>
</svg>

<svg width="99" height="75" xmlns="http://www.w3.org/2000/svg"><g fill-rule="nonzero" fill="none"><path d="M87.386 67.82a.67.67 0 01-.482-.196.683.683 0 01-.201-.484V12.07H7.613a.687.687 0 01-.682-.69c0-.381.306-.69.683-.69h80.505v56.45a.686.686 0 01-.218.503.67.67 0 01-.515.177z" fill="#2969F6"/><path d="M83.446 20.92H77.89v-5.58h5.555v5.58zm-4.189-1.38h2.822v-2.82h-2.822v2.82z" fill="#2969F6"/><path d="M56.861 39.52h-5.564v-5.59h5.564v5.59zm-4.178-1.39h2.763v-2.81h-2.763v2.81zM24.624 52.52v5.59h5.564v-5.59h-5.564zm4.178 4.2H26.01v-2.81h2.792v2.81z" fill="#A8C5DD"/><path d="M99.01 67.37a.801.801 0 000-.17.596.596 0 000-.13.353.353 0 000-.13.752.752 0 00-.07-.12.56.56 0 00-.049-.08l-3.663-4a.695.695 0 00-.99 0 .712.712 0 000 1l2.613 2.86H61.485V29.28H8.168v-27l2.852 2.57c.131.106.297.16.465.15a.7.7 0 00.456-1.23L7.92.17l-.1-.05-.118-.07L7.584 0h-.396L7.07.13H6.98L2.97 3.86a.705.705 0 00-.166.778c.11.269.373.44.661.432a.65.65 0 00.495-.19l2.822-2.63v27.59a.707.707 0 000 .14.798.798 0 000 .13v18.33a.505.505 0 000 .13.616.616 0 000 .13v11.69c0 .387.31.7.693.7a.697.697 0 00.693-.7V49.27h25.347v17.2h-18.98a.69.69 0 00-.669.321.706.706 0 000 .748.69.69 0 00.669.321h82.178l-2.564 2.87a.703.703 0 000 1 .69.69 0 00.99 0l3.534-4a.687.687 0 00.337-.36zM8.168 47.87v-17.2H60.1v35.8H34.891v-18.6H8.168z" fill="#A8C5DD"/><path d="M7.614 75C3.428 74.983.047 71.545.059 67.317c.013-4.228 3.415-7.646 7.601-7.637 4.186.01 7.573 3.442 7.568 7.67-.017 4.234-3.422 7.656-7.614 7.65zm0-13.91c-3.417.028-6.167 2.842-6.149 6.293.019 3.45 2.798 6.236 6.215 6.227 3.416-.01 6.181-2.81 6.181-6.26a6.312 6.312 0 00-1.838-4.438 6.187 6.187 0 00-4.41-1.822zM64.703 26.75h-5.396a.697.697 0 01-.693-.7c0-.387.31-.7.693-.7h5.396c.383 0 .693.313.693.7 0 .387-.31.7-.693.7z" fill="#032663"/><path d="M64.703 32.2a.697.697 0 01-.693-.7v-5.45a.702.702 0 01.318-.675.687.687 0 01.74 0c.226.144.35.407.318.675v5.45a.694.694 0 01-.196.494.68.68 0 01-.487.206zM38.03 45.34h-5.357a.7.7 0 01-.492-.67.7.7 0 01.492-.67h5.396c.349.042.61.34.61.695a.698.698 0 01-.61.695l-.04-.05z" fill="#032663"/><path d="M38.03 50.79a.68.68 0 01-.49-.199.693.693 0 01-.203-.491v-5.46a.696.696 0 01.688-.616c.35 0 .646.264.688.616v5.46c0 .381-.306.69-.683.69z" fill="#032663"/></g></svg>
